tools/download-figma-icons/icons/outlined-medium/electric-meter.svg

<svg width="24" height="24" viewBox="0 0 24 24" fill="none" xmlns="http://www.w3.org/2000/svg">
<path fill-rule="evenodd" clip-rule="evenodd" d="M18.7504 17.7113C18.7504 18.1178 18.4196 18.4485 18.0124 18.4485H5.98771C5.58121 18.4485 5.25046 18.1178 5.25046 17.7113V2.23736C5.25046 1.83086 5.58121 1.50011 5.98771 1.50011H18.0124C18.4196 1.50011 18.7504 1.83086 18.7504 2.23736V17.7113ZM18.0124 0.00012207H5.98771C4.75396 0.00012207 3.75047 1.00362 3.75047 2.23736V17.7113C3.75047 18.9458 4.75396 19.9485 5.98771 19.9485H8.30745V23.25C8.30745 23.664 8.64269 24 9.05744 24C9.47219 24 9.80744 23.664 9.80744 23.25V19.9485H11.3074V23.25C11.3074 23.664 11.6427 24 12.0574 24C12.4722 24 12.8074 23.664 12.8074 23.25V19.9485H14.3074V23.25C14.3074 23.664 14.6427 24 15.0574 24C15.4722 24 15.8074 23.664 15.8074 23.25V19.9485H18.0124C19.2461 19.9485 20.2504 18.9458 20.2504 17.7113V2.23736C20.2504 1.00362 19.2461 0.00012207 18.0124 0.00012207ZM9.0575 8.92298C9.47225 8.92298 9.8075 8.58773 9.8075 8.17298V6.32874C9.8075 5.914 9.47225 5.57875 9.0575 5.57875C8.64275 5.57875 8.3075 5.914 8.3075 6.32874V8.17298C8.3075 8.58773 8.64275 8.92298 9.0575 8.92298ZM12.8075 8.17298C12.8075 8.58773 12.4722 8.92298 12.0575 8.92298C11.6427 8.92298 11.3075 8.58773 11.3075 8.17298V6.32874C11.3075 5.914 11.6427 5.57875 12.0575 5.57875C12.4722 5.57875 12.8075 5.914 12.8075 6.32874V8.17298ZM15.0575 8.92298C15.4722 8.92298 15.8075 8.58773 15.8075 8.17298V6.32874C15.8075 5.914 15.4722 5.57875 15.0575 5.57875C14.6427 5.57875 14.3075 5.914 14.3075 6.32874V8.17298C14.3075 8.58773 14.6427 8.92298 15.0575 8.92298ZM15.8078 13.1137H14.3078V11.6137H15.8078V13.1137ZM9.80783 13.1137H8.30784V11.6137H9.80783V13.1137ZM12.8078 13.1137H11.3078V11.6137H12.8078V13.1137ZM7.55784 10.1137H16.5578C16.9718 10.1137 17.3078 10.449 17.3078 10.8637V13.8637C17.3078 14.2785 16.9718 14.6137 16.5578 14.6137H7.55784C7.14309 14.6137 6.80785 14.2785 6.80785 13.8637V10.8637C6.80785 10.449 7.14309 10.1137 7.55784 10.1137Z" fill="black"/>
</svg>

<svg width="24" height="24" viewBox="0 0 24 24" fill="none" xmlns="http://www.w3.org/2000/svg"><path fill-rule="evenodd" clip-rule="evenodd" d="M18.75 17.711c0 .407-.33.738-.738.738H5.988a.738.738 0 0 1-.738-.738V2.237c0-.406.331-.737.738-.737h12.024c.408 0 .738.33.738.737v15.474ZM18.012.001H5.988A2.24 2.24 0 0 0 3.75 2.236V17.71a2.24 2.24 0 0 0 2.238 2.238h2.32v3.301a.75.75 0 1 0 1.5 0v-3.302h1.5v3.302a.75.75 0 1 0 1.5 0v-3.302h1.5v3.302a.75.75 0 1 0 1.5 0v-3.302h2.204a2.24 2.24 0 0 0 2.238-2.237V2.237A2.24 2.24 0 0 0 18.012 0ZM9.057 8.922a.75.75 0 0 0 .75-.75V6.329a.75.75 0 1 0-1.5 0v1.844c0 .415.336.75.75.75Zm3.75-.75a.75.75 0 1 1-1.5 0V6.329a.75.75 0 1 1 1.5 0v1.844Zm2.25.75a.75.75 0 0 0 .75-.75V6.329a.75.75 0 1 0-1.5 0v1.844c0 .415.336.75.75.75Zm.75 4.19h-1.5v-1.5h1.5v1.5Zm-6 0h-1.5v-1.5h1.5v1.5Zm3 0h-1.5v-1.5h1.5v1.5Zm-5.25-3h9a.75.75 0 0 1 .75.75v3a.75.75 0 0 1-.75.75h-9a.75.75 0 0 1-.75-.75v-3a.75.75 0 0 1 .75-.75Z" fill="currentColor"/></svg>
